X:1
T:Silent Night
T:arr. Cameron Smith
%%score 1 { 2 | 3 }
L:1/8
M:3/4
K:C
V:1 treble nm="Flute" snm="Fl."
V:2 treble nm="Piano"
V:3 bass 
V:1
!p! [eg]3 [fa] [eg]2 | [ce]6 | [eg]3 [fa] [eg]2 | [ce]6 | [bd']4 [bd']2 | [gb]6 | [gc']4 [gc']2 | %7
 [eg]6 | [fa]4 [fa]2 | [ac']3 [gb] [fa]2 | [eg]3 [fa] [eg]2 | [ce]6 | [fa]4 [fa]2 | %13
 [ac']3 [gb] [fa]2 | [eg]3 [fa] [eg]2 | [ce]6 |!<(! [bd']4 [bd']2 | [d'f']3 [bd'] [gb]2 | %18
 [gc']6!<)! |!mf! [c'e']6 |!>(! [gc']2 [eg]2 [ce]2 | [eg]3 [df] [Bd]2!>)! |!p! [Gc-]6 | [Gc]2 z4 :| %24
V:2
!p! G3 A G2 | E6 | G3 A G2 | E6 | d4 d2 | B6 | c4 c2 | G6 | A4 A2 | c3 B A2 | G3 A G2 | E6 | %12
 A4 A2 | c3 B A2 | G3 A G2 | E6 |!<(! d4 d2 | f3 d B2 | c6!<)! |!mf! e6 |!>(! c2 G2 E2 | %21
 G3 F D2!>)! |!p! C6- | C2 z4 :| %24
V:3
 [C,E,G,]6 | [G,,C,E,]6 | [C,E,G,]6 | [G,,C,E,]6 | [B,,D,F,]6 | [G,,B,,D,]6 | [C,E,G,]6 | %7
 [G,,C,E,]6 | [C,F,A,]6 | [A,,C,F,]6 | [C,E,G,]6 | [G,,C,E,]6 | [C,F,A,]6 | [A,,C,F,]6 | %14
 [C,E,G,]6 | [G,,C,E,]6 | [B,,D,F,]6 | [G,,B,,D,]6 | [C,E,G,]6 | [G,,C,E,]6 | [C,E,G,]6 | %21
 [B,,F,G,]6 | [G,,-C,E,]6 | [G,,C,E,]2 z4 :| %24

